Dominus_Funeral/22/devices/drive-removable-media-usb.svg

<svg xmlns="http://www.w3.org/2000/svg" height="24" width="24"><path d="M22.44.89a.55.55 0 0 0-.16.03L18.42 2.2a.57.57 0 0 0-.22.95l.56.56-9.19 9.18a.9.9 0 0 0-.1.1l-.02.02-.03.03-.62.63.18-3.72 1.4-1.42a2.39 2.39 0 1 0-1.44-1.45l-1.7 1.7a1.02 1.02 0 0 0-.3.67l-.3 6.37-1.04 1.04a3.29 3.29 0 0 0-3.83.61 3.27 3.27 0 0 0 0 4.67 3.28 3.28 0 0 0 4.67 0 3.29 3.29 0 0 0 .61-3.83l1.22-1.22a1.01 1.01 0 0 0 .18-.18l2.22-2.22 6.36-.3a1.02 1.02 0 0 0 .68-.3l1.85-1.85.4.4a.57.57 0 0 0 .81 0l2.26-2.25a.57.57 0 0 0 0-.8l-2.26-2.26a.56.56 0 0 0-.8 0L17.7 9.58a.57.57 0 0 0 0 .8l.4.4-1.57 1.58-3.71.18 7.38-7.39.56.57a.57.57 0 0 0 .94-.22L23 1.63a.57.57 0 0 0-.4-.73.53.53 0 0 0-.16-.01z" fill="#1a1a1a"/></svg>

<?xml version="1.0" encoding="UTF-8" standalone="no"?>
<svg
   xmlns:dc="http://purl.org/dc/elements/1.1/"
   xmlns:cc="http://creativecommons.org/ns#"
   xmlns:rdf="http://www.w3.org/1999/02/22-rdf-syntax-ns#"
   xmlns:svg="http://www.w3.org/2000/svg"
   xmlns="http://www.w3.org/2000/svg"
   xmlns:sodipodi="http://sodipodi.sourceforge.net/DTD/sodipodi-0.dtd"
   xmlns:inkscape="http://www.inkscape.org/namespaces/inkscape"
   height="24"
   width="24"
   version="1.1"
   id="svg4"
   sodipodi:docname="drive-removable-media-usb.svg"
   inkscape:version="0.92.4 (5da689c313, 2019-01-14)">
  <metadata
     id="metadata10">
    <rdf:RDF>
      <cc:Work
         rdf:about="">
        <dc:format>image/svg+xml</dc:format>
        <dc:type
           rdf:resource="http://purl.org/dc/dcmitype/StillImage" />
        <dc:title></dc:title>
      </cc:Work>
    </rdf:RDF>
  </metadata>
  <defs
     id="defs8" />
  <sodipodi:namedview
     pagecolor="#ffffff"
     bordercolor="#666666"
     borderopacity="1"
     objecttolerance="10"
     gridtolerance="10"
     guidetolerance="10"
     inkscape:pageopacity="0"
     inkscape:pageshadow="2"
     inkscape:window-width="1138"
     inkscape:window-height="480"
     id="namedview6"
     showgrid="false"
     inkscape:zoom="9.8333333"
     inkscape:cx="1.0677966"
     inkscape:cy="12"
     inkscape:window-x="0"
     inkscape:window-y="25"
     inkscape:window-maximized="0"
     inkscape:current-layer="svg4" />
  <path
     d="M 22.44,0.89 A 0.55,0.55 0 0 0 22.28,0.92 L 18.42,2.2 A 0.57,0.57 0 0 0 18.2,3.15 l 0.56,0.56 -9.19,9.18 a 0.9,0.9 0 0 0 -0.1,0.1 L 9.45,13.01 9.42,13.04 8.8,13.67 8.98,9.95 10.38,8.53 A 2.39,2.39 0 1 0 8.94,7.08 l -1.7,1.7 a 1.02,1.02 0 0 0 -0.3,0.67 l -0.3,6.37 -1.04,1.04 a 3.29,3.29 0 0 0 -3.83,0.61 3.27,3.27 0 0 0 0,4.67 3.28,3.28 0 0 0 4.67,0 3.29,3.29 0 0 0 0.61,-3.83 l 1.22,-1.22 a 1.01,1.01 0 0 0 0.18,-0.18 l 2.22,-2.22 6.36,-0.3 a 1.02,1.02 0 0 0 0.68,-0.3 l 1.85,-1.85 0.4,0.4 a 0.57,0.57 0 0 0 0.81,0 l 2.26,-2.25 a 0.57,0.57 0 0 0 0,-0.8 L 20.77,7.33 a 0.56,0.56 0 0 0 -0.8,0 L 17.7,9.58 a 0.57,0.57 0 0 0 0,0.8 l 0.4,0.4 -1.57,1.58 -3.71,0.18 7.38,-7.39 0.56,0.57 A 0.57,0.57 0 0 0 21.7,5.5 L 23,1.63 A 0.57,0.57 0 0 0 22.6,0.9 0.53,0.53 0 0 0 22.44,0.89 Z"
     id="path2"
     inkscape:connector-curvature="0"
     style="fill:#1a1a1a" />
</svg>
